X: 7904
T: Con McGinley's Highland
R: strathspey
M: 4/4
K: Amixolydian
(3Bcd|:e2 ef ed e2|efe<d BA (3Bcd|e2 ef e<d g2|B<GGA BA (3Bcd:|
|:eaa^g a2 ed|cAAB cdef|=g2 (3fga g2 d=c|BGGA BA (3Bcd:|

